openmetadata-ui/src/main/resources/ui/src/assets/svg/ic-restore.svg

<svg width="14" height="14" viewBox="0 0 14 14" fill="none" xmlns="http://www.w3.org/2000/svg">
<g clip-path="url(#clip0_12104_20402)">
<path d="M11.8121 2.38207C10.5267 1.09691 8.81773 0.388984 6.99992 0.388984C6.00789 0.388984 5.03719 0.603359 4.14824 1.01379L4.28934 0.653125C4.38559 0.406757 4.26391 0.129218 4.01781 0.0329683C3.77145 -0.0632817 3.49391 0.058398 3.39766 0.304492L2.8073 1.81469C2.74141 1.98312 2.74852 2.17316 2.82672 2.33641C2.90492 2.49937 3.04875 2.62406 3.22129 2.6782L4.7684 3.16328C4.81598 3.17832 4.86438 3.18543 4.91168 3.18543C5.11539 3.18543 5.30406 3.05445 5.36832 2.84992C5.44734 2.59754 5.30707 2.32902 5.05469 2.25L4.29098 2.01047C5.12305 1.57488 6.04973 1.34684 6.99965 1.34684C8.5618 1.34684 10.0302 1.95523 11.1348 3.05965C12.2393 4.16434 12.8477 5.63269 12.8477 7.19484C12.8477 8.75699 12.2393 10.2256 11.1348 11.33C10.0302 12.4345 8.5618 13.0429 6.99965 13.0429C5.4375 13.0429 3.96887 12.4345 2.86445 11.33C1.75977 10.2254 1.15164 8.75699 1.15164 7.19484C1.15164 6.2657 1.36301 5.37758 1.77973 4.55508C1.89922 4.31937 1.80488 4.03117 1.56918 3.91168C1.33348 3.79219 1.04527 3.88652 0.925781 4.12223C0.44043 5.0798 0.194336 6.1134 0.194336 7.1943C0.194336 9.01211 0.902266 10.7211 2.1877 12.0065C3.47312 13.292 5.18211 13.9999 6.99992 13.9999C8.81773 13.9999 10.5267 13.292 11.8121 12.0065C13.0976 10.7211 13.8055 9.01211 13.8055 7.1943C13.8055 5.37648 13.0976 3.6675 11.8121 2.38207Z" fill="#37352F"/>
</g>
<defs>
<clipPath id="clip0_12104_20402">
<rect width="14" height="14" fill="white"/>
</clipPath>
</defs>
</svg>

<svg xmlns="http://www.w3.org/2000/svg" width="14" height="14" fill="none"><g clip-path="url(#a)"><path fill="#37352F" d="M11.812 2.382A6.762 6.762 0 0 0 7 .39c-.992 0-1.963.214-2.852.625l.141-.36a.479.479 0 0 0-.891-.35l-.59 1.51a.657.657 0 0 0 .413.864l1.547.485a.475.475 0 0 0 .6-.313.479.479 0 0 0-.313-.6l-.764-.24A5.831 5.831 0 0 1 7 1.347a5.81 5.81 0 0 1 4.135 1.713 5.81 5.81 0 0 1 1.713 4.135 5.81 5.81 0 0 1-1.713 4.135A5.81 5.81 0 0 1 7 13.043a5.81 5.81 0 0 1-4.136-1.713 5.81 5.81 0 0 1-1.712-4.135c0-.93.211-1.817.628-2.64a.479.479 0 0 0-.854-.433 6.733 6.733 0 0 0-.732 3.072 6.76 6.76 0 0 0 1.994 4.813A6.76 6.76 0 0 0 7 14a6.76 6.76 0 0 0 4.812-1.993 6.76 6.76 0 0 0 1.994-4.813 6.76 6.76 0 0 0-1.994-4.812Z"/></g><defs><clipPath id="a"><path fill="#fff" d="M0 0h14v14H0z"/></clipPath></defs></svg>
